svgs/thin/chf-sign.svg

<svg xmlns="http://www.w3.org/2000/svg" viewBox="0 0 640 512"><!--! Font Awesome Pro 6.6.0 by @fontawesome - https://fontawesome.com License - https://fontawesome.com/license (Commercial License) Copyright 2024 Fonticons, Inc. --><path d="M0 114.4C0 68.9 36.9 32 82.4 32l3 0c33.7 0 63.5 21.5 74.2 53.5c1.4 4.2-.9 8.7-5.1 10.1s-8.7-.9-10.1-5.1C135.9 65.1 112.2 48 85.4 48l-3 0C45.7 48 16 77.7 16 114.4l0 283.2C16 434.3 45.7 464 82.4 464l3 0c26.8 0 50.5-17.1 59-42.5c1.4-4.2 5.9-6.5 10.1-5.1s6.5 5.9 5.1 10.1C148.9 458.5 119.1 480 85.4 480l-3 0C36.9 480 0 443.1 0 397.6L0 114.4zM216 32c4.4 0 8 3.6 8 8l0 200 160 0 0-200c0-4.4 3.6-8 8-8s8 3.6 8 8l0 432c0 4.4-3.6 8-8 8s-8-3.6-8-8l0-216-160 0 0 216c0 4.4-3.6 8-8 8s-8-3.6-8-8l0-432c0-4.4 3.6-8 8-8zm232 8c0-4.4 3.6-8 8-8l176 0c4.4 0 8 3.6 8 8s-3.6 8-8 8L464 48l0 192 136 0c4.4 0 8 3.6 8 8s-3.6 8-8 8l-136 0 0 216c0 4.4-3.6 8-8 8s-8-3.6-8-8l0-432z"/></svg>

<svg xmlns="http://www.w3.org/2000/svg" viewBox="0 0 640 512"><!--! Font Awesome Pro 6.4.2 by @fontawesome - https://fontawesome.com License - https://fontawesome.com/license (Commercial License) Copyright 2023 Fonticons, Inc. --><path d="M0 114.4C0 68.9 36.9 32 82.4 32h3c33.7 0 63.5 21.5 74.2 53.5c1.4 4.2-.9 8.7-5.1 10.1s-8.7-.9-10.1-5.1C135.9 65.1 112.2 48 85.4 48h-3C45.7 48 16 77.7 16 114.4V397.6C16 434.3 45.7 464 82.4 464h3c26.8 0 50.5-17.1 59-42.5c1.4-4.2 5.9-6.5 10.1-5.1s6.5 5.9 5.1 10.1C148.9 458.5 119.1 480 85.4 480h-3C36.9 480 0 443.1 0 397.6V114.4zM216 32c4.4 0 8 3.6 8 8V240H384V40c0-4.4 3.6-8 8-8s8 3.6 8 8V472c0 4.4-3.6 8-8 8s-8-3.6-8-8V256H224V472c0 4.4-3.6 8-8 8s-8-3.6-8-8V40c0-4.4 3.6-8 8-8zm232 8c0-4.4 3.6-8 8-8H632c4.4 0 8 3.6 8 8s-3.6 8-8 8H464V240H600c4.4 0 8 3.6 8 8s-3.6 8-8 8H464V472c0 4.4-3.6 8-8 8s-8-3.6-8-8V40z"/></svg>
